src/Icon/svgs/Naver.svg

<svg xmlns="http://www.w3.org/2000/svg" width="24" height="24" viewBox="0 0 24 24">
  <path fill="#1B1C1D" fill-rule="evenodd" d="M3,3 L21,3 L21,21 L3,21 L3,3 Z M13.431,16.1175 L16.5,16.1175 L16.5,7.8825 L13.476,7.8825 L13.476,12.1395 L10.578,7.8825 L7.5,7.8825 L7.5,16.1175 L10.533,16.1175 L10.533,11.8515 L13.431,16.1175 Z"/>
</svg>

<svg xmlns="http://www.w3.org/2000/svg" width="24" height="24"  xmlns:v="https://vecta.io/nano"><path fill="#1b1c1d" fill-rule="evenodd" d="M3 3h18v18H3V3zm10.431 13.118H16.5V7.883h-3.024v4.257l-2.898-4.257H7.5v8.235h3.033v-4.266l2.898 4.266z"/></svg>
